src/images/logo.svg

<svg width="24" height="24" viewBox="0 0 24 24" fill="none" xmlns="http://www.w3.org/2000/svg">
<g clip-path="url(#clip0_1_9916)" filter="url(#filter0_d_1_9916)">
<path d="M19.0204 0.587357C21.687 -0.127166 24.1272 2.31298 23.4126 4.97961L20.3011 16.5919C19.5866 19.2586 16.2533 20.1517 14.3012 18.1996L5.80039 9.6988C3.84828 7.74669 4.74143 4.41339 7.40807 3.69887L19.0204 0.587357Z" fill="url(#paint0_linear_1_9916)"/>
<path d="M14.9391 4.66862C17.6058 3.9541 20.0459 6.39424 19.3314 9.06088L16.2199 20.6732C15.5053 23.3398 12.172 24.233 10.2199 22.2809L1.71912 13.7801C-0.23299 11.828 0.660165 8.49465 3.3268 7.78013L14.9391 4.66862Z" fill="url(#paint1_linear_1_9916)"/>
</g>
<defs>
<filter id="filter0_d_1_9916" x="-0.355469" y="0" width="24.7109" height="24.7109" filterUnits="userSpaceOnUse" color-interpolation-filters="sRGB">
<feFlood flood-opacity="0" result="BackgroundImageFix"/>
<feColorMatrix in="SourceAlpha" type="matrix" values="0 0 0 0 0 0 0 0 0 0 0 0 0 0 0 0 0 0 127 0" result="hardAlpha"/>
<feOffset dy="0.355469"/>
<feGaussianBlur stdDeviation="0.177734"/>
<feComposite in2="hardAlpha" operator="out"/>
<feColorMatrix type="matrix" values="0 0 0 0 0 0 0 0 0 0 0 0 0 0 0 0 0 0 0.25 0"/>
<feBlend mode="normal" in2="BackgroundImageFix" result="effect1_dropShadow_1_9916"/>
<feBlend mode="normal" in="SourceGraphic" in2="effect1_dropShadow_1_9916" result="shape"/>
</filter>
<linearGradient id="paint0_linear_1_9916" x1="25.0203" y1="-1.02032" x2="5.06095" y2="18.939" gradientUnits="userSpaceOnUse">
<stop stop-color="#81FF18"/>
<stop offset="1" stop-color="#87F823"/>
</linearGradient>
<linearGradient id="paint1_linear_1_9916" x1="20.939" y1="3.06094" x2="0.979686" y2="23.0203" gradientUnits="userSpaceOnUse">
<stop stop-color="#0DB1F6"/>
<stop offset="1" stop-color="#4536FB" stop-opacity="0"/>
<stop offset="1" stop-color="#4536FB"/>
</linearGradient>
<clipPath id="clip0_1_9916">
<rect width="24" height="24" fill="white"/>
</clipPath>
</defs>
</svg>

<svg xmlns="http://www.w3.org/2000/svg" fill="none" width="24" height="24" viewBox="0 0 24 24">
    <g clip-path="url(#a)" filter="url(#b)">
        <path fill="url(#c)" d="M19.02.59a3.59 3.59 0 0 1 4.4 4.39L20.3 16.59a3.59 3.59 0 0 1-6 1.61L5.8 9.7a3.59 3.59 0 0 1 1.6-6L19.03.59Z"/>
        <path fill="url(#d)" d="M14.94 4.67a3.59 3.59 0 0 1 4.4 4.4l-3.12 11.6a3.59 3.59 0 0 1-6 1.61l-8.5-8.5a3.59 3.59 0 0 1 1.6-6l11.62-3.11Z"/>
    </g>
    <defs>
        <linearGradient id="c" x1="25.02" x2="5.06" y1="-1.02" y2="18.94" gradientUnits="userSpaceOnUse">
            <stop stop-color="#81FF18"/>
            <stop offset="1" stop-color="#87F823"/>
        </linearGradient>
        <linearGradient id="d" x1="20.94" x2=".98" y1="3.06" y2="23.02" gradientUnits="userSpaceOnUse">
            <stop stop-color="#0DB1F6"/>
            <stop offset="1" stop-color="#4536FB" stop-opacity="0"/>
            <stop offset="1" stop-color="#4536FB"/>
        </linearGradient>
        <clipPath id="a">
            <path fill="#fff" d="M0 0h24v24H0z"/>
        </clipPath>
        <filter id="b" width="24.71" height="24.71" x="-.36" y="0" color-interpolation-filters="sRGB" filterUnits="userSpaceOnUse">
            <feFlood flood-opacity="0" result="BackgroundImageFix"/>
            <feColorMatrix in="SourceAlpha" result="hardAlpha" values="0 0 0 0 0 0 0 0 0 0 0 0 0 0 0 0 0 0 127 0"/>
            <feOffset dy=".36"/>
            <feGaussianBlur stdDeviation=".18"/>
            <feComposite in2="hardAlpha" operator="out"/>
            <feColorMatrix values="0 0 0 0 0 0 0 0 0 0 0 0 0 0 0 0 0 0 0.25 0"/>
            <feBlend in2="BackgroundImageFix" result="effect1_dropShadow_1_9916"/>
            <feBlend in="SourceGraphic" in2="effect1_dropShadow_1_9916" result="shape"/>
        </filter>
    </defs>
</svg>
